public/avatar/body/94.svg

<svg xmlns:xlink="http://www.w3.org/1999/xlink" height="82" width="84.85" xmlns="http://www.w3.org/2000/svg"><g transform="translate(37.4 42.25)"><use height="38" transform="translate(-11.95 -17.45)" width="32.05" xlink:href="#a"/><use height="38.95" transform="translate(-12.45 -17.95)" width="33.05" xlink:href="#b"/><use height="22" transform="translate(4 -1)" width="17.85" xlink:href="#c"/><use height="22" transform="matrix(-1 0 0 1 4.1 -1)" width="17.85" xlink:href="#c"/></g><defs><use height="38" width="32.05" xlink:href="#d" id="a"/><use height="38.95" width="33.05" xlink:href="#e" id="b"/><use height="22" width="17.85" xlink:href="#f" id="c"/><path d="M27.35 7.4q2.15 4.15 3.55 8.75 1.45 4.7 1.15 9.5-.35 4.95-4.2 8.1-3.8 3.2-8.75 4.05l-2.6.2q-3.6 0-7.05-1.15-4.65-1.6-7.1-5.5Q-.2 27.4.05 23q.2-4.4 2-9.3Q3.85 8.75 7 5.05 10.1 1.3 14.7.1l1.8-.1q1.9.05 3.7.8 4.75 2.05 7.15 6.6" fill="#fff" fill-rule="evenodd" transform="translate(-.05)" id="d"/><path d="M27.35 7.4Q24.95 2.85 20.2.8 17.55-.3 14.7.1 10.1 1.3 7 5.05q-3.15 3.7-4.95 8.65-1.8 4.9-2 9.3-.25 4.4 2.3 8.35 2.45 3.9 7.1 5.5 4.65 1.55 9.65.95 4.95-.85 8.75-4.05 3.85-3.15 4.2-8.1.3-4.8-1.15-9.5-1.4-4.6-3.55-8.75Z" fill="none" stroke="#333" stroke-linecap="round" stroke-linejoin="round" transform="translate(.45 .5)" id="e"/><g id="f" fill-rule="evenodd"><path d="m15.9.95-.25.15-.1-.4-.25-.2 1.5-.4q1.3 2.25 1 5.2-.35 3.35-1.55 6.4.7-3.7.25-6.45l-.05-.35.15-3.9-.65-.1-.05-.05v.1M0 21.35l.6-.05 1.8.1q4-.3 7.5-2.15 1.55-.75 2.4-2l.25-.5.55-.4 1.75-1.9q-4.7 8.1-14.65 7.6l-.2-.7" transform="translate(0 -.1)"/><path d="M15.65 1.1q-.4 1.4-1.6 1.95-5.6 2.6-11 5.6l.2 3.55L.6 20.1q-.15.5-.6.35V18.1l2.35-7.35-.45-.95q.4-3.5 4.5-4.05Q12.1 5 15.3.5l.25.2.1.4" fill="#ab568d" transform="translate(0 -.1)"/><path d="m15.9.95.05-.05.65.1-.15 3.9-.05.4-1.3 1.15q-2.7 2.35-5.7 4-1.7 1.25-3.75 1.7l-.9.3h-1.2l-.3-.25-.2-3.55q5.4-3 11-5.6 1.2-.55 1.6-1.95l.25-.15M0 21.15h.9l-.3.15-.6.05v-.2m1.35-.05L2 19.45q4.65-.05 8.9-1.95l1.65-.75-.25.5q-.85 1.25-2.4 2L1.35 21.1" fill="#fdc2ff" transform="translate(0 -.1)"/><path d="m15.95.9-.05.05v-.1l.05.05M4.75 12.45l.9-.3q2.05-.45 3.75-1.7l5.75 3.5-.3.5-1.75 1.9-.55.4-1.65.75Q6.65 19.4 2 19.45l2.75-7M16.4 5.3l.05-.4.05.35-.1.05M6.3 15.35l-.15 2.9 5.15-1.7.6-2.45-5.6 1.25m-5.4 5.8.45-.05 8.55-1.85Q6.4 21.1 2.4 21.4l-1.8-.1.3-.15" fill="#fff" transform="translate(0 -.1)"/><path d="M9.4 10.45q3-1.65 5.7-4l1.3-1.15.1-.05q.45 2.75-.25 6.45l-.1.3-.55 2.2-.45-.25-5.75-3.5m-3.1 4.9 5.6-1.25-.6 2.45-5.15 1.7.15-2.9" fill="#fb00ff" transform="translate(0 -.1)"/><path d="m1.9 9.8.45.95L0 11.1l.2-1 1.7-.3" fill="#a18e03" transform="translate(0 -.1)"/><path d="M2.35 10.75 0 18.1v-7l2.35-.35" fill="#ffe205" transform="translate(0 -.1)"/><path d="m3.25 12.2.3.25h1.2l-2.75 7-.65 1.65-.45.05H0v-.7q.45.15.6-.35l2.65-7.9" fill="#fa73ff" transform="translate(0 -.1)"/></g></defs></svg>

<?xml version="1.0" encoding="UTF-8" standalone="no"?>
<svg xmlns:xlink="http://www.w3.org/1999/xlink" height="82.0px" width="84.85px" xmlns="http://www.w3.org/2000/svg">
  <g transform="matrix(1.0, 0.0, 0.0, 1.0, 37.4, 42.25)">
    <use height="38.0" transform="matrix(1.0, 0.0, 0.0, 1.0, -11.95, -17.45)" width="32.05" xlink:href="#sprite0"/>
    <use height="38.95" transform="matrix(1.0, 0.0, 0.0, 1.0, -12.45, -17.95)" width="33.05" xlink:href="#sprite1"/>
    <use height="22.0" transform="matrix(1.0, 0.0, 0.0, 1.0, 4.0, -1.0)" width="17.85" xlink:href="#sprite2"/>
    <use height="22.0" transform="matrix(-1.0, 0.0, 0.0, 1.0, 4.1, -1.0)" width="17.85" xlink:href="#sprite2"/>
  </g>
  <defs>
    <g id="sprite0" transform="matrix(1.0, 0.0, 0.0, 1.0, -0.05, 0.0)">
      <use height="38.0" transform="matrix(1.0, 0.0, 0.0, 1.0, 0.05, 0.0)" width="32.05" xlink:href="#shape0"/>
    </g>
    <g id="shape0" transform="matrix(1.0, 0.0, 0.0, 1.0, -0.05, 0.0)">
      <path d="M27.35 7.4 Q29.5 11.55 30.9 16.15 32.35 20.85 32.05 25.65 31.7 30.6 27.85 33.75 24.05 36.95 19.1 37.8 L16.5 38.0 Q12.9 38.0 9.45 36.85 4.8 35.25 2.35 31.35 -0.2 27.4 0.05 23.0 0.25 18.6 2.05 13.7 3.85 8.75 7.0 5.05 10.1 1.3 14.7 0.1 L16.5 0.0 Q18.4 0.05 20.2 0.8 24.95 2.85 27.35 7.4" fill="#ffffff" fill-rule="evenodd" stroke="none"/>
    </g>
    <g id="sprite1" transform="matrix(1.0, 0.0, 0.0, 1.0, 0.45, 0.5)">
      <use height="38.95" transform="matrix(1.0, 0.0, 0.0, 1.0, -0.45, -0.5)" width="33.05" xlink:href="#shape1"/>
    </g>
    <g id="shape1" transform="matrix(1.0, 0.0, 0.0, 1.0, 0.45, 0.5)">
      <path d="M27.35 7.4 Q24.95 2.85 20.2 0.8 17.55 -0.3 14.7 0.1 10.1 1.3 7.0 5.05 3.85 8.75 2.05 13.7 0.25 18.6 0.05 23.0 -0.2 27.4 2.35 31.35 4.8 35.25 9.45 36.85 14.1 38.4 19.1 37.8 24.05 36.95 27.85 33.75 31.7 30.6 32.05 25.65 32.35 20.85 30.9 16.15 29.5 11.55 27.35 7.4 Z" fill="none" stroke="#333333" stroke-linecap="round" stroke-linejoin="round" stroke-width="1.0"/>
    </g>
    <g id="sprite2" transform="matrix(1.0, 0.0, 0.0, 1.0, 0.0, -0.1)">
      <use height="22.0" transform="matrix(1.0, 0.0, 0.0, 1.0, 0.0, 0.1)" width="17.85" xlink:href="#shape2"/>
    </g>
    <g id="shape2" transform="matrix(1.0, 0.0, 0.0, 1.0, 0.0, -0.1)">
      <path d="M15.9 0.95 L15.65 1.1 15.55 0.7 15.3 0.5 16.8 0.1 Q18.1 2.35 17.8 5.3 17.45 8.65 16.25 11.7 16.95 8.0 16.5 5.25 L16.45 4.9 16.6 1.0 15.95 0.9 15.9 0.85 15.9 0.95 M0.0 21.35 L0.6 21.3 2.4 21.4 Q6.4 21.1 9.9 19.25 11.45 18.5 12.3 17.25 L12.55 16.75 13.1 16.35 14.85 14.45 Q10.15 22.55 0.2 22.05 L0.0 21.35" fill="#000000" fill-rule="evenodd" stroke="none"/>
      <path d="M15.65 1.1 Q15.25 2.5 14.05 3.05 8.45 5.65 3.05 8.65 L3.25 12.2 0.6 20.1 Q0.45 20.6 0.0 20.45 L0.0 18.1 2.35 10.75 1.9 9.8 Q2.3 6.3 6.4 5.75 12.1 5.0 15.3 0.5 L15.55 0.7 15.65 1.1" fill="#ab568d" fill-rule="evenodd" stroke="none"/>
      <path d="M15.9 0.95 L15.95 0.9 16.6 1.0 16.45 4.9 16.4 5.3 15.1 6.45 Q12.4 8.8 9.4 10.45 7.7 11.7 5.65 12.15 L4.75 12.45 3.55 12.45 3.25 12.2 3.05 8.65 Q8.45 5.65 14.05 3.05 15.25 2.5 15.65 1.1 L15.9 0.95 M0.0 21.15 L0.9 21.15 0.6 21.3 0.0 21.35 0.0 21.15 M1.35 21.1 L2.0 19.45 Q6.65 19.4 10.9 17.5 L12.55 16.75 12.3 17.25 Q11.45 18.5 9.9 19.25 L1.35 21.1" fill="#fdc2ff" fill-rule="evenodd" stroke="none"/>
      <path d="M15.95 0.9 L15.9 0.95 15.9 0.85 15.95 0.9 M4.75 12.45 L5.65 12.15 Q7.7 11.7 9.4 10.45 L15.15 13.95 14.85 14.45 13.1 16.35 12.55 16.75 10.9 17.5 Q6.65 19.4 2.0 19.45 L4.75 12.45 M16.4 5.3 L16.45 4.9 16.5 5.25 16.4 5.3 M6.3 15.35 L6.15 18.25 11.3 16.55 11.9 14.1 6.3 15.35 M0.9 21.15 L1.35 21.1 9.9 19.25 Q6.4 21.1 2.4 21.4 L0.6 21.3 0.9 21.15" fill="#ffffff" fill-rule="evenodd" stroke="none"/>
      <path d="M9.4 10.45 Q12.4 8.8 15.1 6.45 L16.4 5.3 16.5 5.25 Q16.95 8.0 16.25 11.7 L16.15 12.0 15.6 14.2 15.15 13.95 9.4 10.45 M6.3 15.35 L11.9 14.1 11.3 16.55 6.15 18.25 6.3 15.35" fill="#fb00ff" fill-rule="evenodd" stroke="none"/>
      <path d="M1.9 9.8 L2.35 10.75 0.0 11.1 0.2 10.1 1.9 9.8" fill="#a18e03" fill-rule="evenodd" stroke="none"/>
      <path d="M2.35 10.75 L0.0 18.1 0.0 11.1 2.35 10.75" fill="#ffe205" fill-rule="evenodd" stroke="none"/>
      <path d="M3.25 12.2 L3.55 12.45 4.75 12.45 2.0 19.45 1.35 21.1 0.9 21.15 0.0 21.15 0.0 20.45 Q0.45 20.6 0.6 20.1 L3.25 12.2" fill="#fa73ff" fill-rule="evenodd" stroke="none"/>
    </g>
  </defs>
</svg>
